X: 7364
T: Cliffs Of Moher, The
R: jig
M: 6/8
K: Adorian
|:~a3 bag|eaf ged|c2A BAG|EFG A2g|
~a3 bag|eaf ged|c2A BAG|1 EFG A2g:|2 EFG AB/c/d||
efe dBA|efe dBA|G2B dBA|G2B dBd|
efe dBA|efe dBA|G2B dBA|EFG AB/c/d|
gfe dBA|gfe dBA|G2B dBA|G2B dBd|
efe dee|cee Bee|EFG BAG|ED[BB,] [AA,]2g||

